assets/2023/icons/go_dark.svg

<svg width="16" height="16" viewBox="0 0 16 16" fill="none" xmlns="http://www.w3.org/2000/svg">
<path d="M4.9906 14.7076L5.45631 13.901C5.5312 13.7712 5.48676 13.6054 5.35703 13.5305L4.7077 13.1556C4.5458 13.0621 4.33877 13.1176 4.2453 13.2795L3.81323 14.0278C3.62552 14.353 3.73692 14.7687 4.06204 14.9564C4.38716 15.1441 4.80289 15.0327 4.9906 14.7076Z" fill="#CCA18A"/>
<path d="M4.41455 12.9863L3.81323 14.0278C3.62552 14.353 3.73692 14.7687 4.06204 14.9564V14.9564C4.38716 15.1441 4.80289 15.0327 4.9906 14.7076L5.59192 13.6661" stroke="black" stroke-width="0.2"/>
<path d="M12.3703 14.0651L11.8628 13.186C11.7879 13.0563 11.622 13.0118 11.4923 13.0867L10.843 13.4616C10.6811 13.5551 10.6256 13.7621 10.7191 13.924L11.193 14.7448C11.3807 15.07 11.7964 15.1813 12.1215 14.9936C12.4466 14.8059 12.558 14.3902 12.3703 14.0651Z" fill="#CCA18A"/>
<path d="M10.5498 13.6309L11.193 14.7448C11.3807 15.07 11.7964 15.1813 12.1215 14.9936V14.9936C12.4466 14.8059 12.558 14.3902 12.3703 14.0651L11.7272 12.9511" stroke="black" stroke-width="0.2"/>
<path d="M3.51896 2.34575L4.13287 2.58777C4.35452 2.67515 4.42858 2.95194 4.28018 3.13834L3.96642 3.54818C3.80865 3.74979 3.5029 3.74783 3.34772 3.54423L2.97871 3.06005C2.85512 2.8979 2.85161 2.67415 2.97005 2.50819C3.09403 2.33446 3.32039 2.26747 3.51896 2.34575Z" fill="#6FAFD4"/>
<path d="M3.62326 3.86294L2.96565 3.01752C2.84022 2.85626 2.84253 2.6298 2.97124 2.47113V2.47113C3.09258 2.32156 3.2972 2.26849 3.47594 2.34022L4.5672 2.77819" stroke="black" stroke-width="0.2"/>
<path d="M12.4567 2.34543L11.8447 2.59205C11.6237 2.6811 11.5517 2.95844 11.7015 3.14371L12.0183 3.55119C12.1776 3.7516 12.4833 3.74734 12.637 3.54258L13.0023 3.05564C13.1247 2.89257 13.1265 2.66879 13.0068 2.50373C12.8816 2.33094 12.6547 2.26566 12.4567 2.34543Z" fill="#6FAFD4"/>
<path d="M12.3641 3.86338L13.0153 3.01304C13.1396 2.85084 13.1356 2.6244 13.0057 2.46671V2.46671C12.8832 2.31806 12.6782 2.26652 12.5 2.3396L11.412 2.78576" stroke="black" stroke-width="0.2"/>
<path d="M3.14018 5.78744C3.21489 3.36957 5.31294 1.51113 7.4249 1.51113H8.59871C10.6903 1.51113 12.7888 3.39123 12.8551 5.78712C12.8994 7.3886 12.8994 8.96138 12.8551 10.5629C12.8218 11.7642 12.3844 12.7122 11.699 13.36C11.013 14.0083 10.0723 14.3619 9.02216 14.3619H7.14392C5.02686 14.3619 3.21474 12.9195 3.14018 10.5066C3.09181 8.94135 3.09181 7.35266 3.14018 5.78744Z" fill="#5DA8D3" stroke="black" stroke-width="0.2"/>
<path fill-rule="evenodd" clip-rule="evenodd" d="M7.4249 1.41113C5.25974 1.41113 3.11664 3.31166 3.04023 5.78436C2.9918 7.35163 2.9918 8.94238 3.04023 10.5097C3.11453 12.9143 4.87767 14.3797 6.96598 14.4585C6.66774 13.7993 6.50171 13.0676 6.50171 12.297C6.50171 9.39798 8.85184 7.04785 11.7509 7.04785C12.1751 7.04785 12.5876 7.09818 12.9826 7.19318C12.9773 6.72508 12.9681 6.25596 12.955 5.78436C12.8872 3.33395 10.7441 1.41113 8.59871 1.41113H7.4249Z" fill="#5DA8D3"/>
<path fill-rule="evenodd" clip-rule="evenodd" d="M7.4249 1.61113H8.59871C10.6366 1.61113 12.6903 3.44851 12.7551 5.78989C12.7677 6.24484 12.7767 6.69748 12.7821 7.14912C12.8494 7.16253 12.9163 7.17722 12.9826 7.19318C12.9773 6.72508 12.9681 6.25596 12.955 5.78436C12.8872 3.33395 10.7441 1.41113 8.59871 1.41113H7.4249C5.25974 1.41113 3.11664 3.31166 3.04023 5.78436C2.9918 7.35163 2.9918 8.94238 3.04023 10.5097C3.11453 12.9143 4.87767 14.3797 6.96598 14.4585C6.93549 14.3911 6.90638 14.323 6.87869 14.2541C4.92647 14.1392 3.30972 12.7555 3.24013 10.5035C3.19183 8.94032 3.19183 7.35369 3.24013 5.79053C3.31315 3.42747 5.36615 1.61113 7.4249 1.61113Z" fill="black"/>
<path fill-rule="evenodd" clip-rule="evenodd" d="M7.4249 1.41113C5.25974 1.41113 3.11664 3.31166 3.04023 5.78436C2.9918 7.35163 2.9918 8.94238 3.04023 10.5097C3.11664 12.9823 4.97876 14.4619 7.14392 14.4619H9.02216C9.05803 14.4619 9.09379 14.4615 9.12943 14.4607C9.04472 14.0864 9 13.6969 9 13.297C9 10.8326 10.6982 8.76491 12.9883 8.20027C12.9885 7.39736 12.9774 6.59452 12.955 5.78436C12.8872 3.33395 10.7441 1.41113 8.59871 1.41113H7.4249Z" fill="#5DA8D3"/>
<path fill-rule="evenodd" clip-rule="evenodd" d="M7.4249 1.61113H8.59871C10.6366 1.61113 12.6903 3.44851 12.7551 5.78989C12.778 6.61622 12.789 7.4349 12.7882 8.25383C12.8544 8.2347 12.9211 8.21684 12.9883 8.20027C12.9885 7.39736 12.9774 6.59452 12.955 5.78436C12.8872 3.33395 10.7441 1.41113 8.59871 1.41113H7.4249C5.25974 1.41113 3.11664 3.31166 3.04023 5.78436C2.9918 7.35163 2.9918 8.94238 3.04023 10.5097C3.11664 12.9823 4.97876 14.4619 7.14392 14.4619H9.02216C9.05803 14.4619 9.09379 14.4615 9.12943 14.4607C9.1145 14.3947 9.10082 14.3283 9.0884 14.2614C9.06637 14.2617 9.04429 14.2619 9.02216 14.2619H7.14392C5.07497 14.2619 3.31285 12.8567 3.24013 10.5035C3.19183 8.94032 3.19183 7.35369 3.24013 5.79053C3.31315 3.42747 5.36615 1.61113 7.4249 1.61113Z" fill="black"/>
<path fill-rule="evenodd" clip-rule="evenodd" d="M7.4249 1.41113C5.25974 1.41113 3.11664 3.31166 3.04023 5.78436C2.9918 7.35163 2.9918 8.94238 3.04023 10.5097C3.10704 12.672 4.53943 14.0748 6.34587 14.3929L5.75506 13.8017C5.32601 13.3724 5.37524 12.663 5.85946 12.297L10.7423 8.60694C11.0662 8.36211 11.5061 8.33749 11.8553 8.54465L12.982 9.21289C12.9958 8.07069 12.9868 6.93491 12.955 5.78436C12.8872 3.33395 10.7441 1.41113 8.59871 1.41113H7.4249Z" fill="#5DA8D3"/>
<path fill-rule="evenodd" clip-rule="evenodd" d="M7.4249 1.61113H8.59871C10.6366 1.61113 12.6903 3.44851 12.7551 5.78989C12.7858 6.89903 12.7952 7.99438 12.7833 9.09506L12.982 9.21289C12.9958 8.07069 12.9868 6.93491 12.955 5.78436C12.8872 3.33395 10.7441 1.41113 8.59871 1.41113H7.4249C5.25974 1.41113 3.11664 3.31166 3.04023 5.78436C2.9918 7.35163 2.9918 8.94238 3.04023 10.5097C3.10704 12.672 4.53943 14.0748 6.34587 14.3929L6.08669 14.1336C4.50659 13.7374 3.30004 12.4422 3.24013 10.5035C3.19183 8.94032 3.19183 7.35369 3.24013 5.79053C3.31315 3.42747 5.36615 1.61113 7.4249 1.61113Z" fill="black"/>
<path fill-rule="evenodd" clip-rule="evenodd" d="M7.30156 4.83828C7.30156 5.76247 6.56724 6.51152 5.66152 6.51152C4.75581 6.51152 4.02148 5.76247 4.02148 4.83828C4.02148 3.91409 4.75581 3.16504 5.66152 3.16504C6.56724 3.16504 7.30156 3.91409 7.30156 4.83828Z" fill="white"/>
<path fill-rule="evenodd" clip-rule="evenodd" d="M5.93012 4.83735C5.93012 5.26451 5.59046 5.61122 5.17139 5.61122C4.75275 5.61122 4.41309 5.26451 4.41309 4.83735C4.41309 4.41019 4.75275 4.06348 5.17139 4.06348C5.59046 4.06348 5.93012 4.41019 5.93012 4.83735Z" fill="black"/>
<path fill-rule="evenodd" clip-rule="evenodd" d="M11.97 4.83828C11.97 5.76247 11.2357 6.51152 10.33 6.51152C9.42386 6.51152 8.68994 5.76247 8.68994 4.83828C8.68994 3.91409 9.42386 3.16504 10.33 3.16504C11.2357 3.16504 11.97 3.91409 11.97 4.83828Z" fill="white"/>
<path fill-rule="evenodd" clip-rule="evenodd" d="M11.5854 4.83735C11.5854 5.26451 11.2457 5.61122 10.8271 5.61122C10.408 5.61122 10.0684 5.26451 10.0684 4.83735C10.0684 4.41019 10.408 4.06348 10.8271 4.06348C11.2457 4.06348 11.5854 4.41019 11.5854 4.83735Z" fill="black"/>
<path fill-rule="evenodd" clip-rule="evenodd" d="M7.63232 7.58374H8.60962V6.7793H7.63232V7.58374Z" fill="white"/>
<path fill-rule="evenodd" clip-rule="evenodd" d="M9.09672 6.51175C9.09672 6.80778 8.6595 7.04791 8.12018 7.04791C7.58126 7.04791 7.14404 6.80778 7.14404 6.51175C7.14404 6.21571 7.58126 5.97559 8.12018 5.97559C8.6595 5.97559 9.09672 6.21571 9.09672 6.51175Z" fill="#CCA18A"/>
<path fill-rule="evenodd" clip-rule="evenodd" d="M8.60968 6.23446C8.60968 6.53573 8.38755 6.51159 8.11295 6.51159C7.83874 6.51159 7.61621 6.53573 7.61621 6.23446C7.61621 5.9332 7.83874 5.68945 8.11295 5.68945C8.38755 5.68945 8.60968 5.9332 8.60968 6.23446Z" fill="black"/>
<path d="M13.7107 9.68248L13.0226 8.99436C12.933 8.90474 12.7876 8.90474 12.698 8.99436L12.2494 9.44297C12.1376 9.55483 12.1376 9.73618 12.2494 9.84804L12.8973 10.4959C13.1219 10.7205 13.4861 10.7205 13.7107 10.4959C13.9353 10.2713 13.9353 9.9071 13.7107 9.68248Z" fill="#CCA18A"/>
<path d="M12.0469 9.64551L12.8973 10.4959C13.1219 10.7205 13.4861 10.7205 13.7107 10.4959V10.4959C13.9353 10.2713 13.9353 9.9071 13.7107 9.68248L12.8603 8.83209" stroke="black" stroke-width="0.2"/>
<path d="M3.09682 10.4958L3.78493 9.80773C3.87456 9.71811 3.87456 9.5728 3.78493 9.48318L3.33632 9.03456C3.22447 8.92271 3.04311 8.92271 2.93126 9.03456L2.28339 9.68243C2.05877 9.90705 2.05877 10.2712 2.28339 10.4958C2.50801 10.7205 2.8722 10.7205 3.09682 10.4958Z" fill="#CCA18A"/>
<path d="M3.13379 8.83203L2.28339 9.68243C2.05877 9.90705 2.05877 10.2712 2.28339 10.4958V10.4958C2.50801 10.7205 2.8722 10.7205 3.09682 10.4958L3.94721 9.64545" stroke="black" stroke-width="0.2"/>
</svg>

<svg xmlns="http://www.w3.org/2000/svg" width="16" height="16" fill="none" viewBox="0 0 16 16"><path fill="#CCA18A" d="m4.99 14.708.466-.807a.27.27 0 0 0-.099-.37l-.65-.375a.34.34 0 0 0-.462.123l-.432.749a.68.68 0 0 0 1.178.68"/><path stroke="#000" stroke-width=".2" d="m4.415 12.986-.602 1.042a.68.68 0 0 0 1.177.68l.602-1.042"/><path fill="#CCA18A" d="m12.37 14.065-.507-.879a.27.27 0 0 0-.37-.1l-.65.376a.34.34 0 0 0-.124.462l.474.82a.68.68 0 1 0 1.177-.679"/><path stroke="#000" stroke-width=".2" d="m10.55 13.63.643 1.115a.68.68 0 1 0 1.177-.68l-.643-1.114"/><path fill="#6FAFD4" d="m3.519 2.346.614.242a.354.354 0 0 1 .147.55l-.314.41a.39.39 0 0 1-.618-.004l-.37-.484a.465.465 0 0 1 .541-.714"/><path stroke="#000" stroke-width=".2" d="m3.623 3.863-.657-.845a.44.44 0 0 1 .51-.677l1.091.437"/><path fill="#6FAFD4" d="m12.457 2.345-.612.247a.354.354 0 0 0-.144.552l.317.407c.16.2.465.196.619-.008l.365-.487a.465.465 0 0 0-.545-.71"/><path stroke="#000" stroke-width=".2" d="m12.364 3.863.651-.85a.44.44 0 0 0-.515-.673l-1.088.446"/><path fill="#5DA8D3" stroke="#000" stroke-width=".2" d="M3.14 5.787c.075-2.417 2.173-4.276 4.285-4.276h1.174c2.091 0 4.19 1.88 4.256 4.276a86 86 0 0 1 0 4.776c-.033 1.201-.47 2.15-1.156 2.797s-1.627 1.002-2.677 1.002H7.144c-2.117 0-3.93-1.443-4.004-3.855a77 77 0 0 1 0-4.72Z"/><path fill="#5DA8D3" fill-rule="evenodd" d="M7.425 1.411c-2.165 0-4.308 1.9-4.385 4.373a77 77 0 0 0 0 4.726c.075 2.404 1.838 3.87 3.926 3.949a5.25 5.25 0 0 1 6.017-7.265 86 86 0 0 0-.028-1.41c-.068-2.45-2.21-4.373-4.356-4.373z" clip-rule="evenodd"/><path fill="#000" fill-rule="evenodd" d="M7.425 1.611h1.174c2.038 0 4.091 1.838 4.156 4.179q.02.682.027 1.36.1.02.2.043a86 86 0 0 0-.027-1.409c-.068-2.45-2.21-4.373-4.356-4.373H7.425c-2.165 0-4.308 1.9-4.385 4.373a77 77 0 0 0 0 4.726c.075 2.404 1.838 3.87 3.926 3.949a5 5 0 0 1-.087-.205c-1.953-.115-3.57-1.498-3.639-3.75a77 77 0 0 1 0-4.713c.073-2.364 2.126-4.18 4.185-4.18" clip-rule="evenodd"/><path fill="#5DA8D3" fill-rule="evenodd" d="M7.425 1.411c-2.165 0-4.308 1.9-4.385 4.373a77 77 0 0 0 0 4.726c.077 2.472 1.939 3.952 4.104 3.952h1.878l.107-.001a5.25 5.25 0 0 1 3.859-6.26c0-.804-.01-1.606-.033-2.417-.068-2.45-2.21-4.373-4.356-4.373z" clip-rule="evenodd"/><path fill="#000" fill-rule="evenodd" d="M7.425 1.611h1.174c2.038 0 4.091 1.838 4.156 4.179q.034 1.237.033 2.464.1-.03.2-.054c0-.803-.01-1.605-.033-2.416-.068-2.45-2.21-4.373-4.356-4.373H7.425c-2.165 0-4.308 1.9-4.385 4.373a77 77 0 0 0 0 4.726c.077 2.472 1.939 3.952 4.104 3.952h1.878l.107-.001-.04-.2H7.143c-2.069 0-3.831-1.404-3.904-3.757a77 77 0 0 1 0-4.713c.073-2.364 2.126-4.18 4.185-4.18" clip-rule="evenodd"/><path fill="#5DA8D3" fill-rule="evenodd" d="M7.425 1.411c-2.165 0-4.308 1.9-4.385 4.373a77 77 0 0 0 0 4.726c.067 2.162 1.5 3.565 3.306 3.883l-.59-.591a1 1 0 0 1 .103-1.505l4.883-3.69a1 1 0 0 1 1.113-.062l1.127.668a86 86 0 0 0-.027-3.429c-.068-2.45-2.21-4.373-4.356-4.373z" clip-rule="evenodd"/><path fill="#000" fill-rule="evenodd" d="M7.425 1.611h1.174c2.038 0 4.091 1.838 4.156 4.179.03 1.109.04 2.204.028 3.305l.199.118a86 86 0 0 0-.027-3.429c-.068-2.45-2.21-4.373-4.356-4.373H7.425c-2.165 0-4.308 1.9-4.385 4.373a77 77 0 0 0 0 4.726c.067 2.162 1.5 3.565 3.306 3.883l-.26-.26c-1.58-.396-2.786-1.69-2.846-3.63a77 77 0 0 1 0-4.712c.073-2.364 2.126-4.18 4.185-4.18" clip-rule="evenodd"/><path fill="#fff" fill-rule="evenodd" d="M7.302 4.838c0 .924-.735 1.674-1.64 1.674-.906 0-1.64-.75-1.64-1.674s.734-1.673 1.64-1.673 1.64.75 1.64 1.673" clip-rule="evenodd"/><path fill="#000" fill-rule="evenodd" d="M5.93 4.837c0 .428-.34.774-.759.774a.766.766 0 0 1-.758-.774c0-.427.34-.774.758-.774.42 0 .76.347.76.774" clip-rule="evenodd"/><path fill="#fff" fill-rule="evenodd" d="M11.97 4.838c0 .924-.734 1.674-1.64 1.674s-1.64-.75-1.64-1.674.734-1.673 1.64-1.673 1.64.75 1.64 1.673" clip-rule="evenodd"/><path fill="#000" fill-rule="evenodd" d="M11.585 4.837c0 .428-.34.774-.758.774a.766.766 0 0 1-.759-.774c0-.427.34-.774.76-.774.418 0 .757.347.757.774" clip-rule="evenodd"/><path fill="#fff" fill-rule="evenodd" d="M7.632 7.584h.978v-.805h-.978z" clip-rule="evenodd"/><path fill="#CCA18A" fill-rule="evenodd" d="M9.097 6.512c0 .296-.437.536-.977.536-.539 0-.976-.24-.976-.536s.437-.536.976-.536c.54 0 .977.24.977.536" clip-rule="evenodd"/><path fill="#000" fill-rule="evenodd" d="M8.61 6.234c0 .302-.222.278-.497.278-.274 0-.497.024-.497-.278 0-.3.223-.545.497-.545.275 0 .497.244.497.545" clip-rule="evenodd"/><path fill="#CCA18A" d="m13.71 9.682-.687-.688a.23.23 0 0 0-.325 0l-.449.449a.287.287 0 0 0 0 .405l.648.648a.575.575 0 0 0 .814-.814"/><path stroke="#000" stroke-width=".2" d="m12.047 9.646.85.85a.575.575 0 0 0 .813-.813l-.85-.85"/><path fill="#CCA18A" d="m3.097 10.496.688-.688a.23.23 0 0 0 0-.325l-.449-.448a.286.286 0 0 0-.405 0l-.648.647a.575.575 0 1 0 .814.814"/><path stroke="#000" stroke-width=".2" d="m3.134 8.832-.85.85a.575.575 0 1 0 .813.813l.85-.85"/></svg>
